brandFactory_export/3.Masa/Camiseta _3Masa.svg

<?xml version="1.0" encoding="UTF-8"?>
<svg width="24px" height="24px" viewBox="0 0 24 24" version="1.1" xmlns="http://www.w3.org/2000/svg" xmlns:xlink="http://www.w3.org/1999/xlink">
    <title>3.Masa/Camiseta _3Masa</title>
    <g id="Symbols" stroke="none" stroke-width="1" fill="none" fill-rule="evenodd">
        <g id="3.Masa/Camiseta-_3Masa" fill="#5CB615" fill-rule="nonzero">
            <path d="M23.3848739,4.50756303 L16.0605042,0.0705882353 C16.0571429,0.0672268908 16.0504202,0.0672268908 16.0470588,0.0672268908 C16.010084,0.0470588235 15.9731092,0.0336134454 15.9294118,0.0235294118 C15.902521,0.0168067227 15.8756303,0.00672268908 15.8453782,0.00672268908 C15.8352941,0.00672268908 15.8252101,0 15.8184874,0 C15.8016807,0 15.7848739,0.00672268908 15.7714286,0.0100840336 C15.7277311,0.0134453782 15.687395,0.0235294118 15.6504202,0.0369747899 C15.6336134,0.043697479 15.6235294,0.0504201681 15.6067227,0.0571428571 C15.5630252,0.0773109244 15.5226891,0.104201681 15.4857143,0.141176471 L15.4655462,0.161344538 C15.4420168,0.188235294 15.4117647,0.208403361 15.394958,0.242016807 C15.3848739,0.262184874 15.3848739,0.282352941 15.3747899,0.299159664 C15.3747899,0.302521008 15.3747899,0.305882353 15.3714286,0.305882353 C15.3445378,0.369747899 15.3310924,0.433613445 15.3344538,0.497478992 C15.3344538,2.78655462 14.2319328,3.90252101 11.9731092,3.90252101 C9.71092437,3.90252101 8.61176471,2.78991597 8.61176471,0.494117647 C8.61176471,0.319327731 8.5210084,0.157983193 8.3697479,0.0672268908 C8.21848739,-0.0201680672 8.03361345,-0.0201680672 7.88235294,0.0638655462 L0.245378151,4.50084034 C0.0268907563,4.62521008 -0.0605042017,4.90084034 0.043697479,5.13277311 L2.41344538,10.410084 C2.46722689,10.5310924 2.56806723,10.6252101 2.68907563,10.6689076 C2.81008403,10.7159664 2.94789916,10.7092437 3.06218487,10.6521008 L4.99831933,9.72436975 L4.95798319,23.1260504 C4.95798319,23.2571429 5.00840336,23.3848739 5.09915966,23.4789916 C5.18991597,23.5697479 5.31428571,23.6235294 5.44537815,23.6235294 L18.487395,23.6235294 C18.6151261,23.6235294 18.7428571,23.5697479 18.8302521,23.4789916 C18.9210084,23.3848739 18.9714286,23.2605042 18.9714286,23.1260504 L18.9310924,9.73109244 L20.8302521,10.6521008 C20.9512605,10.7092437 21.092437,10.7159664 21.2168067,10.6689076 C21.3411765,10.6184874 21.4420168,10.5176471 21.492437,10.3932773 L23.5865546,5.11260504 C23.6773109,4.88739496 23.5932773,4.63193277 23.3848739,4.50756303" id="Path"></path>
        </g>
    </g>
</svg>

<svg width="24" height="24" viewBox="0 0 24 24" xmlns="http://www.w3.org/2000/svg"><path d="M23.385 4.508L16.06.07c-.004-.004-.01-.004-.014-.004a.447.447 0 00-.118-.043c-.026-.007-.053-.017-.084-.017-.01 0-.02-.007-.027-.007-.016 0-.033.007-.047.01a.455.455 0 00-.12.027l-.044.02a.413.413 0 00-.121.084l-.02.02c-.024.027-.054.047-.071.081-.01.02-.01.04-.02.057 0 .004 0 .007-.004.007a.433.433 0 00-.037.191c0 2.29-1.102 3.406-3.36 3.406-2.263 0-3.362-1.113-3.362-3.409A.496.496 0 008.37.067a.494.494 0 00-.488-.003L.245 4.5a.495.495 0 00-.201.632l2.37 5.277a.485.485 0 00.648.242l1.936-.928-.04 13.402c0 .131.05.259.141.353.09.09.215.145.346.145h13.042a.483.483 0 00.343-.145.504.504 0 00.141-.353l-.04-13.395 1.9.921a.498.498 0 00.386.017.504.504 0 00.275-.276l2.095-5.28a.489.489 0 00-.202-.605" fill="#5CB615" fill-rule="nonzero"/></svg>
